img/withdraw.svg

<svg width="24" height="24" viewBox="0 0 24 24" fill="none" xmlns="http://www.w3.org/2000/svg">
<path opacity="0.4" fill-rule="evenodd" clip-rule="evenodd" d="M2.75 7.666L2.75 16.335C2.75 19.355 4.889 21.25 7.916 21.25L16.084 21.25C19.111 21.25 21.25 19.365 21.25 16.335L21.25 7.666C21.25 4.636 19.111 2.75 16.084 2.75L7.916 2.75C4.889 2.75 2.75 4.636 2.75 7.666Z" stroke="#2E2F30" stroke-width="1.5" stroke-linecap="round" stroke-linejoin="round"/>
<path d="M7.91406 12L16.0861 12" stroke="#2E2F30" stroke-width="1.5" stroke-linecap="round" stroke-linejoin="round"/>
<path d="M11.6777 15.748L7.91373 12L11.6777 8.25195" stroke="#2E2F30" stroke-width="1.5" stroke-linecap="round" stroke-linejoin="round"/>
</svg>

<svg width="24" height="24" fill="none" xmlns="http://www.w3.org/2000/svg"><path opacity=".4" clip-rule="evenodd" d="M2.75 7.666v8.669c0 3.02 2.139 4.915 5.166 4.915h8.168c3.027 0 5.166-1.885 5.166-4.915V7.666c0-3.03-2.139-4.916-5.166-4.916H7.916c-3.027 0-5.166 1.886-5.166 4.916z" stroke="#2E2F30" stroke-width="1.5" stroke-linecap="round" stroke-linejoin="round"/><path d="M7.914 12h8.172M11.678 15.748 7.914 12l3.764-3.748" stroke="#2E2F30" stroke-width="1.5" stroke-linecap="round" stroke-linejoin="round"/></svg>
